X:465
T:Bafta Hindi
Z:Jack Campin, http://www.campin.me.uk/
F:Jack Campin's Nine-Note Tunebook
% last edit 03-02-2013
B:Baheega Sidky Rasheed, Egyptian Folk Songs
N:very similar to the Neapolitan Tarantella
M:2/4
L:1/8
Q:1/4=132
K:DMin
dd AA     |dd  AA    |AA  Bd     |^cB A2 |
AA (B/A/)G|GG (A/G/)F|FF (G/F/)E| ED A2 |
AA (B/A/)G|GG (A/G/)F|FF (G/F/)E| ED D2|]

